X: 310
T:The Sylph
% Nottingham Music Database
S:FTB, via EF
M:6/8
K:D
B|"D"AFA dfa|"D"agf "A7"e2g|"D"fag fed|"A7"cde e2A|
"D"AFA dfa|"D"agf "A7"efg|"D"fad "A7"eac|"D"ded d2:|
E|"D"DFA "G"dcB|"D"AGF E2D|"D"FAD FAD|"Em"EFE "A7"EFG|
"D"DFA "G"dcB|"G"BAG "A7"FED|"D"fad "A7"eac|"D"ded d2:|<end>
<start>
